X:1
T:Beatrice, 87.87
T:Beatrice, 87.87
T:William Wallace Coe, 1895
T:Public Domain Courtesy of the Cyber Hymnal™
C:William Wallace Coe, 1895
Z:Public Domain
Z:Courtesy of the Cyber Hymnal™
%%score ( 1 2 ) ( 3 4 )
L:1/8
M:3/4
K:Eb
V:1 treble 
V:2 treble 
V:3 bass 
V:4 bass 
V:1
 [EG]4 [EG]2 | [EB]4 [EG]2 | (F2 G2) [DA]2 | [EA]4 [EG]2 | [Ee]4 [Ec]2 | [EB]4 [EG]2 | %6
 (F2 G2) [E=A]2 | (B4 A2) | [EG]4 [EG]2 | [EB]4 [EG]2 | (F2 G2) [DA]2 | [EA]4 [EG]2 | %12
 [_DG]4 [DB]2 | (B2 A2) E2 | [EG]4 [DF]2 | E6 |] %16
V:2
 x6 | x6 | D4 x2 | x6 | x6 | x6 | D4 x2 | D6 | x6 | x6 | D4 x2 | x6 | x6 | C4 E2 | x6 | E6 |] %16
V:3
 [E,B,]4 [E,B,]2 | [G,B,]4 [E,B,]2 | B,4 [B,,B,]2 | [E,C]4 [E,B,]2 | [E,C]4 [E,A,]2 | %5
 [G,B,]4 [E,B,]2 | [F,B,]4 [F,,C]2 | [B,,B,]6 | [E,B,]4 [E,B,]2 | [G,B,]4 [E,B,]2 | B,4 [B,,B,]2 | %11
 [E,C]4 [E,B,]2 | [E,B,]4 [E,G,]2 | [A,,A,]4 [A,,C]2 | [B,,B,]4 [B,,A,]2 | [E,G,]6 |] %16
V:4
 x6 | x6 | B,4 x2 | x6 | x6 | x6 | x6 | x6 | x6 | x6 | B,4 x2 | x6 | x6 | x6 | x6 | x6 |] %16

